assets/images/icons/quote.svg

<svg height="10" viewBox="0 0 14 10" width="14" xmlns="http://www.w3.org/2000/svg"><path d="m13 0h-3l-2 4v6h6v-6h-3zm-8 0h-3l-2 4v6h6v-6h-3z" fill="#916625"/></svg>

<svg xmlns="http://www.w3.org/2000/svg" width="14" height="10" viewBox="0 0 14 10">
  <title>quoteAsset 1</title>
  <path d="M13,0H10L8,4v6h6V4H11ZM5,0H2L0,4v6H6V4H3Z" style="fill: #916625"/>
</svg>
